TGraph/docu_c43.svg

<svg xmlns="http://www.w3.org/2000/svg" viewBox="0 0 1200 800" preserveAspectRatio="none" width="1200" height="800">
 <path d="M0,0H1200V800H0Z" style="fill: white;"></path>
 <g>
  <g transform="translate(120,80)">
   <path d="M0,0H960V640H0Z" style="fill: white; stroke: black; stroke-width: 1;"></path>
   <svg x="0" y="0" overflow="hidden" width="960" height="640" viewBox="0 0 960 640">
    <g>
     <g transform="translate(160,205)">
      <path style="stroke: black; stroke-width: 1; fill: none;" d="M0,0V51m3,0h-6M0,0V-51m3,0h-6"></path>
     </g>
     <g transform="translate(320,218)">
      <path style="stroke: black; stroke-width: 1; fill: none;" d="M0,0V46m3,0h-6M0,0V-46m3,0h-6"></path>
     </g>
     <g transform="translate(480,207)">
      <path style="stroke: black; stroke-width: 1; fill: none;" d="M0,0V44m3,0h-6M0,0V-44m3,0h-6"></path>
     </g>
     <g transform="translate(640,282)">
      <path style="stroke: black; stroke-width: 1; fill: none;" d="M0,0V51m3,0h-6M0,0V-51m3,0h-6"></path>
     </g>
     <g transform="translate(800,154)">
      <path style="stroke: black; stroke-width: 1; fill: none;" d="M0,0V102m3,0h-6M0,0V-102m3,0h-6"></path>
     </g>
     <path d="M156,205a4,4,0,1,0,8,0a4,4,0,1,0,-8,0zM316,218a4,4,0,1,0,8,0a4,4,0,1,0,-8,0zM476,207a4,4,0,1,0,8,0a4,4,0,1,0,-8,0zM636,282a4,4,0,1,0,8,0a4,4,0,1,0,-8,0zM796,154a4,4,0,1,0,8,0a4,4,0,1,0,-8,0z" style="stroke: black; fill: black;"></path>
    </g>
    <g>
     <g transform="translate(160,205)">
      <path style="stroke: black; stroke-width: 1; fill: none;" d="M0,128m-3,-2v2h6v-2M0,-128m-3,2v-2h6v2"></path>
     </g>
     <g transform="translate(320,218)">
      <path style="stroke: black; stroke-width: 1; fill: none;" d="M0,182m-3,-2v2h6v-2M0,-182m-3,2v-2h6v2"></path>
     </g>
     <g transform="translate(480,207)">
      <path style="stroke: black; stroke-width: 1; fill: none;" d="M0,195m-3,-2v2h6v-2M0,-195m-3,2v-2h6v2"></path>
     </g>
     <g transform="translate(640,282)">
      <path style="stroke: black; stroke-width: 1; fill: none;" d="M0,128m-3,-2v2h6v-2M0,-128m-3,2v-2h6v2"></path>
     </g>
     <g transform="translate(800,154)">
      <path style="stroke: black; stroke-width: 1; fill: none;" d="M0,115m-3,-2v2h6v-2M0,-115m-3,2v-2h6v2"></path>
     </g>
    </g>
    <g>
     <g transform="translate(160,448)">
      <path style="stroke: black; stroke-width: 1; fill: none;" d="M0,0V51m3,0h-6M0,0V-51m3,0h-6"></path>
     </g>
     <g transform="translate(320,466)">
      <path style="stroke: black; stroke-width: 1; fill: none;" d="M0,0V46m3,0h-6M0,0V-46m3,0h-6"></path>
     </g>
     <g transform="translate(480,438)">
      <path style="stroke: black; stroke-width: 1; fill: none;" d="M0,0V44m3,0h-6M0,0V-44m3,0h-6"></path>
     </g>
     <g transform="translate(640,461)">
      <path style="stroke: black; stroke-width: 1; fill: none;" d="M0,0V51m3,0h-6M0,0V-51m3,0h-6"></path>
     </g>
     <g transform="translate(800,458)">
      <path style="stroke: black; stroke-width: 1; fill: none;" d="M0,0V102m3,0h-6M0,0V-102m3,0h-6"></path>
     </g>
     <path d="M156,448a4,4,0,1,0,8,0a4,4,0,1,0,-8,0zM316,466a4,4,0,1,0,8,0a4,4,0,1,0,-8,0zM476,438a4,4,0,1,0,8,0a4,4,0,1,0,-8,0zM636,461a4,4,0,1,0,8,0a4,4,0,1,0,-8,0zM796,458a4,4,0,1,0,8,0a4,4,0,1,0,-8,0z" style="stroke: black; fill: none;"></path>
    </g>
    <g>
     <g transform="translate(160,448)">
      <path style="stroke: black; stroke-width: 1; fill: none;" d="M0,161m-3,-2v2h6v-2M0,-161m-3,2v-2h6v2"></path>
     </g>
     <g transform="translate(320,466)">
      <path style="stroke: black; stroke-width: 1; fill: none;" d="M0,49m-3,-2v2h6v-2M0,-49m-3,2v-2h6v2"></path>
     </g>
     <g transform="translate(480,438)">
      <path style="stroke: black; stroke-width: 1; fill: none;" d="M0,179m-3,-2v2h6v-2M0,-179m-3,2v-2h6v2"></path>
     </g>
     <g transform="translate(640,461)">
      <path style="stroke: black; stroke-width: 1; fill: none;" d="M0,51m-3,-2v2h6v-2M0,-51m-3,2v-2h6v2"></path>
     </g>
     <g transform="translate(800,458)">
      <path style="stroke: black; stroke-width: 1; fill: none;" d="M0,179m-3,-2v2h6v-2M0,-179m-3,2v-2h6v2"></path>
     </g>
    </g>
   </svg>
   <g>
    <g transform="translate(0,640)">
     <path d="M0,0h960M0,-24v24m32,-12v12m32,-12v12m32,-12v12m32,-12v12m32,-24v24m32,-12v12m32,-12v12m32,-12v12m32,-12v12m32,-24v24m32,-12v12m32,-12v12m32,-12v12m32,-12v12m32,-24v24m32,-12v12m32,-12v12m32,-12v12m32,-12v12m32,-24v24m32,-12v12m32,-12v12m32,-12v12m32,-12v12m32,-24v24m32,-12v12m32,-12v12m32,-12v12m32,-12v12m32,-24v24" style="stroke: black; stroke-width: 1;"></path>
     <g font-family="Arial" font-size="28" space="preserve" fill="black" text-anchor="middle">
      <text dy=".8em" transform="translate(0,6)">
       0
      </text>
      <text dy=".8em" transform="translate(160,6)">
       1
      </text>
      <text dy=".8em" transform="translate(320,6)">
       2
      </text>
      <text dy=".8em" transform="translate(480,6)">
       3
      </text>
      <text dy=".8em" transform="translate(640,6)">
       4
      </text>
      <text dy=".8em" transform="translate(800,6)">
       5
      </text>
      <text dy=".8em" transform="translate(960,6)">
       6
      </text>
     </g>
    </g>
    <g>
     <path d="M0,0v640M36,640h-36m18,-26h-18m18,-25h-18m18,-26h-18m18,-25h-18m36,-26h-36m18,-26h-18m18,-25h-18m18,-26h-18m18,-25h-18m36,-26h-36m18,-26h-18m18,-25h-18m18,-26h-18m18,-25h-18m36,-26h-36m18,-26h-18m18,-25h-18m18,-26h-18m18,-25h-18m36,-26h-36m18,-26h-18m18,-25h-18m18,-26h-18m18,-25h-18m36,-26h-36" style="stroke: black; stroke-width: 1;"></path>
     <g font-family="Arial" font-size="28" space="preserve" fill="black" text-anchor="end">
      <text dy=".4em" transform="translate(-4,640)">
       -0.5
      </text>
      <text dy=".4em" transform="translate(-4,512)">
       0
      </text>
      <text dy=".4em" transform="translate(-4,384)">
       0.5
      </text>
      <text dy=".4em" transform="translate(-4,256)">
       1
      </text>
      <text dy=".4em" transform="translate(-4,128)">
       1.5
      </text>
      <text dy=".4em" transform="translate(-4)">
       2
      </text>
     </g>
    </g>
   </g>
  </g>
 </g>
</svg>

<svg xmlns="http://www.w3.org/2000/svg" viewBox="0 0 1200 800" preserveAspectRatio="none" width="1200" height="800">
 <path d="M0,0H1200V800H0Z" style="fill: white;"></path>
 <g>
  <g transform="translate(120,80)">
   <path d="M0,0H960V640H0Z" style="fill: white; stroke: black; stroke-width: 1;"></path>
   <svg x="0" y="0" overflow="hidden" width="960" height="640" viewBox="0 0 960 640">
    <g>
     <g transform="translate(160,205)">
      <path style="stroke: black; stroke-width: 1; fill: none;" d="M0,0V51m3,0h-6M0,0V-51m3,0h-6"></path>
     </g>
     <g transform="translate(320,218)">
      <path style="stroke: black; stroke-width: 1; fill: none;" d="M0,0V46m3,0h-6M0,0V-46m3,0h-6"></path>
     </g>
     <g transform="translate(480,207)">
      <path style="stroke: black; stroke-width: 1; fill: none;" d="M0,0V44m3,0h-6M0,0V-44m3,0h-6"></path>
     </g>
     <g transform="translate(640,282)">
      <path style="stroke: black; stroke-width: 1; fill: none;" d="M0,0V51m3,0h-6M0,0V-51m3,0h-6"></path>
     </g>
     <g transform="translate(800,154)">
      <path style="stroke: black; stroke-width: 1; fill: none;" d="M0,0V102m3,0h-6M0,0V-102m3,0h-6"></path>
     </g>
     <path d="M156,205a4,4,0,1,0,8,0a4,4,0,1,0,-8,0zM316,218a4,4,0,1,0,8,0a4,4,0,1,0,-8,0zM476,207a4,4,0,1,0,8,0a4,4,0,1,0,-8,0zM636,282a4,4,0,1,0,8,0a4,4,0,1,0,-8,0zM796,154a4,4,0,1,0,8,0a4,4,0,1,0,-8,0z" style="stroke: black; fill: black;"></path>
    </g>
    <g>
     <g transform="translate(160,205)">
      <path style="stroke: black; stroke-width: 1; fill: none;" d="M0,128m-3,-2v2h6v-2M0,-128m-3,2v-2h6v2"></path>
     </g>
     <g transform="translate(320,218)">
      <path style="stroke: black; stroke-width: 1; fill: none;" d="M0,182m-3,-2v2h6v-2M0,-182m-3,2v-2h6v2"></path>
     </g>
     <g transform="translate(480,207)">
      <path style="stroke: black; stroke-width: 1; fill: none;" d="M0,195m-3,-2v2h6v-2M0,-195m-3,2v-2h6v2"></path>
     </g>
     <g transform="translate(640,282)">
      <path style="stroke: black; stroke-width: 1; fill: none;" d="M0,128m-3,-2v2h6v-2M0,-128m-3,2v-2h6v2"></path>
     </g>
     <g transform="translate(800,154)">
      <path style="stroke: black; stroke-width: 1; fill: none;" d="M0,115m-3,-2v2h6v-2M0,-115m-3,2v-2h6v2"></path>
     </g>
    </g>
    <g>
     <g transform="translate(160,448)">
      <path style="stroke: black; stroke-width: 1; fill: none;" d="M0,0V51m3,0h-6M0,0V-51m3,0h-6"></path>
     </g>
     <g transform="translate(320,466)">
      <path style="stroke: black; stroke-width: 1; fill: none;" d="M0,0V46m3,0h-6M0,0V-46m3,0h-6"></path>
     </g>
     <g transform="translate(480,438)">
      <path style="stroke: black; stroke-width: 1; fill: none;" d="M0,0V44m3,0h-6M0,0V-44m3,0h-6"></path>
     </g>
     <g transform="translate(640,461)">
      <path style="stroke: black; stroke-width: 1; fill: none;" d="M0,0V51m3,0h-6M0,0V-51m3,0h-6"></path>
     </g>
     <g transform="translate(800,458)">
      <path style="stroke: black; stroke-width: 1; fill: none;" d="M0,0V102m3,0h-6M0,0V-102m3,0h-6"></path>
     </g>
     <path d="M156,448a4,4,0,1,0,8,0a4,4,0,1,0,-8,0zM316,466a4,4,0,1,0,8,0a4,4,0,1,0,-8,0zM476,438a4,4,0,1,0,8,0a4,4,0,1,0,-8,0zM636,461a4,4,0,1,0,8,0a4,4,0,1,0,-8,0zM796,458a4,4,0,1,0,8,0a4,4,0,1,0,-8,0z" style="stroke: black; fill: none;"></path>
    </g>
    <g>
     <g transform="translate(160,448)">
      <path style="stroke: black; stroke-width: 1; fill: none;" d="M0,161m-3,-2v2h6v-2M0,-161m-3,2v-2h6v2"></path>
     </g>
     <g transform="translate(320,466)">
      <path style="stroke: black; stroke-width: 1; fill: none;" d="M0,49m-3,-2v2h6v-2M0,-49m-3,2v-2h6v2"></path>
     </g>
     <g transform="translate(480,438)">
      <path style="stroke: black; stroke-width: 1; fill: none;" d="M0,179m-3,-2v2h6v-2M0,-179m-3,2v-2h6v2"></path>
     </g>
     <g transform="translate(640,461)">
      <path style="stroke: black; stroke-width: 1; fill: none;" d="M0,51m-3,-2v2h6v-2M0,-51m-3,2v-2h6v2"></path>
     </g>
     <g transform="translate(800,458)">
      <path style="stroke: black; stroke-width: 1; fill: none;" d="M0,179m-3,-2v2h6v-2M0,-179m-3,2v-2h6v2"></path>
     </g>
    </g>
   </svg>
   <g>
    <g transform="translate(0,640)">
     <path d="M0,0h960M0,-24V0M32,-12V0M64,-12V0M96,-12V0M128,-12V0M160,-24V0M192,-12V0M224,-12V0M256,-12V0M288,-12V0M320,-24V0M352,-12V0M384,-12V0M416,-12V0M448,-12V0M480,-24V0M512,-12V0M544,-12V0M576,-12V0M608,-12V0M640,-24V0M672,-12V0M704,-12V0M736,-12V0M768,-12V0M800,-24V0M832,-12V0M864,-12V0M896,-12V0M928,-12V0M960,-24V0" style="stroke: black; stroke-width: 1;"></path>
     <g font-family="Arial" font-size="28" space="preserve" fill="black" text-anchor="middle">
      <text dy=".8em" transform="translate(0,6)">
       0
      </text>
      <text dy=".8em" transform="translate(160,6)">
       1
      </text>
      <text dy=".8em" transform="translate(320,6)">
       2
      </text>
      <text dy=".8em" transform="translate(480,6)">
       3
      </text>
      <text dy=".8em" transform="translate(640,6)">
       4
      </text>
      <text dy=".8em" transform="translate(800,6)">
       5
      </text>
      <text dy=".8em" transform="translate(960,6)">
       6
      </text>
     </g>
    </g>
    <g>
     <path d="M0,0v640M36,640H0M18,614H0M18,589H0M18,563H0M18,538H0M36,512H0M18,486H0M18,461H0M18,435H0M18,410H0M36,384H0M18,358H0M18,333H0M18,307H0M18,282H0M36,256H0M18,230H0M18,205H0M18,179H0M18,154H0M36,128H0M18,102H0M18,77H0M18,51H0M18,26H0M36,0H0" style="stroke: black; stroke-width: 1;"></path>
     <g font-family="Arial" font-size="28" space="preserve" fill="black" text-anchor="end">
      <text dy=".4em" transform="translate(-4,640)">
       -0.5
      </text>
      <text dy=".4em" transform="translate(-4,512)">
       0
      </text>
      <text dy=".4em" transform="translate(-4,384)">
       0.5
      </text>
      <text dy=".4em" transform="translate(-4,256)">
       1
      </text>
      <text dy=".4em" transform="translate(-4,128)">
       1.5
      </text>
      <text dy=".4em" transform="translate(-4)">
       2
      </text>
     </g>
    </g>
   </g>
  </g>
 </g>
</svg>
